images/icon-checkmark-circle.svg

<?xml version="1.0" encoding="UTF-8"?>
<svg width="61px" height="61px" viewBox="0 0 61 61" version="1.1" xmlns="http://www.w3.org/2000/svg" xmlns:xlink="http://www.w3.org/1999/xlink">
    <!-- Generator: Sketch 39.1 (31720) - http://www.bohemiancoding.com/sketch -->
    <title>Group</title>
    <desc>Created with Sketch.</desc>
    <defs></defs>
    <g id="Page-1" stroke="none" stroke-width="1" fill="none" fill-rule="evenodd">
        <g id="manage-contacts_notification-saved" transform="translate(-690.000000, -530.000000)" fill="#FFFFFF">
            <g id="pop-up" transform="translate(354.000000, 236.000000)">
                <g id="icon" transform="translate(336.000000, 294.000000)">
                    <g id="Group">
                        <path d="M30.5081333,0 C13.664,0 0,13.6477333 0,30.4918667 C0,47.336 13.664,61 30.5081333,61 C47.3522667,61 61,47.336 61,30.4918667 C61,13.6477333 47.3522667,0 30.5081333,0 L30.5081333,0 Z M45.3385889,24.6589111 L28.7018556,41.2949667 C28.6381444,41.3586778 28.5737556,41.4230667 28.4937778,41.4867778 C28.4456556,41.5504889 28.3982111,41.5823444 28.3500889,41.6304667 C28.1101556,41.8385444 27.8709,42.0140889 27.6472333,42.1740444 C27.6316444,42.1903111 27.6316444,42.1740444 27.6316444,42.1903111 C27.3917111,42.334 27.1680444,42.4621 26.9287889,42.5258111 C26.7051222,42.6057889 26.4814556,42.6539111 26.2577889,42.6857667 L25.9222889,42.6857667 C25.315,42.6539111 24.7077111,42.4621 24.1804,42.0628889 C24.1322778,42.0466222 24.0848333,42.0147667 24.0367111,41.9673222 C23.8767556,41.8873444 23.7649222,41.7592444 23.6375,41.6474111 C23.5737889,41.5992889 23.5094,41.5355778 23.4619556,41.4874556 L15.6614111,33.7038556 C14.6867667,32.7129444 14.2069,31.7864222 14.2394333,30.9229333 C14.2712889,30.0438556 14.6549111,29.2610222 15.3903,28.5256333 C16.1256889,27.7902444 16.9403778,27.3910333 17.8194556,27.3429111 C18.6822667,27.3110556 19.6094667,27.7902444 20.6003778,28.7655667 L25.986,34.1511889 L40.4165667,19.7368889 C41.3912111,18.7459778 42.3184111,18.2667889 43.1974889,18.2986444 C44.0603,18.3305 44.8594,18.7303889 45.5947889,19.4651 C46.3301778,20.2004889 46.7293889,20.9989111 46.7612444,21.8624 C46.7931,22.7408 46.3295,23.668 45.3385889,24.6589111 L45.3385889,24.6589111 Z" id="Shape"></path>
                    </g>
                </g>
            </g>
        </g>
    </g>
</svg>

<svg xmlns="http://www.w3.org/2000/svg" width="61" height="61" viewBox="0 0 61 61">
  <path fill="#FFF" fill-rule="evenodd" d="M30.508 0C13.664 0 0 13.648 0 30.492S13.664 61 30.508 61 61 47.336 61 30.492 47.352 0 30.508 0zm14.83 24.66L28.703 41.294c-.064.064-.128.128-.208.192-.048.063-.096.095-.144.143-.24.21-.48.384-.703.544-.015.016-.015 0-.015.016-.24.144-.464.272-.703.336-.225.08-.45.128-.672.16h-.336c-.607-.032-1.214-.224-1.742-.623-.048-.016-.095-.048-.143-.096-.16-.08-.272-.208-.4-.32-.063-.048-.128-.11-.175-.16l-7.8-7.783c-.975-.99-1.455-1.918-1.423-2.78.03-.88.415-1.663 1.15-2.398.736-.736 1.55-1.135 2.43-1.183.862-.032 1.79.447 2.78 1.423l5.386 5.385 14.43-14.413c.975-.99 1.902-1.47 2.78-1.438.864.03 1.663.43 2.4 1.165.734.735 1.133 1.534 1.165 2.397.033.88-.43 1.806-1.42 2.797z" />
</svg>
